X:1
T:Wha is That at my Bower Door?
M:4/4
L:1/8
K:Bb
 G3/2 A/2 B3/2 c/2 AA F3/2 A/2| G3/2 A/2 Bd g2 d3/2 =e/2| f3/2 g/2 fd c3/2 A/2 F3/2 A/2|\
 G3/2 A/2 B3/2 c/2 A2 G2| dd BB cc Ac| dd d^f g2 dd/2-=e/2| f3/2 g/2 fd cA F3/2 A/2|\
 G3/2 A/2 B3/2 c/2 A2 G2|

